gama.ui.shared/icons_svg/light/editor/command.lastedit.svg

<svg height="24.75" viewBox="-884.061 -3263.623 24.75 24.75" width="24.75" xmlns="http://www.w3.org/2000/svg"><g fill="none"><circle cx="-871.686" cy="-3251.248" fill="#666" r="8"/><circle cx="-871.686" cy="-3251.248" r="8"/><circle cx="-871.686" cy="-3251.248" fill="#fff" r="8"/><circle cx="-871.686" cy="-3251.248" r="8"/><path d="m-874.8798-3250.864 2.6497 2.6497c.1644.1643.1644.4311 0 .5953-.1644.1646-.431.1646-.5955 0l-3.3684-3.3682c-.1644-.1645-.1644-.4311 0-.5955l3.3684-3.3683c.1645-.1645.4311-.1645.5955 0 .1644.1643.1644.431 0 .5953l-2.6497 2.6497h7.4046c.2325 0 .421.1885.421.421 0 .2326-.1885.421-.421.421zm3.1941 7.579c-4.4183 0-8-3.5817-8-8 0-4.4182 3.5817-8 8-8 4.4182 0 8 3.5818 8 8 0 4.4183-3.5818 8-8 8zm0-.842c3.9532 0 7.1579-3.2048 7.1579-7.158 0-3.953-3.2047-7.158-7.1579-7.158s-7.1579 3.205-7.1579 7.158c0 3.9532 3.2047 7.158 7.1579 7.158z" fill="#5d76a1"/></g></svg>

<?xml version="1.0" encoding="UTF-8" standalone="no"?>
<!DOCTYPE svg PUBLIC "-//W3C//DTD SVG 1.1//EN" "http://www.w3.org/Graphics/SVG/1.1/DTD/svg11.dtd">
<svg xmlns="http://www.w3.org/2000/svg" xmlns:dc="http://purl.org/dc/elements/1.1/" version="1.1" xmlns:xl="http://www.w3.org/1999/xlink" viewBox="-884.0607 -3263.623 24.75 24.75" width="24.75" height="24.75">
  <defs/>
  <g id="SOURCES" stroke-dasharray="none" stroke-opacity="1" stroke="none" fill="none" fill-opacity="1">
    <title>SOURCES</title>
    <g id="SOURCES_Calque_4">
      <title>Calque 4</title>
      <g id="Group_12351">
        <g id="Graphic_12354">
          <circle cx="-871.6857" cy="-3251.248" r="8.00000702080164" fill="#666"/>
          <circle cx="-871.6857" cy="-3251.248" r="8.00000702080164" stroke="black" stroke-linecap="round" stroke-linejoin="round" stroke-width="0"/>
        </g>
        <g id="Graphic_12353"/>
        <g id="Graphic_12352">
          <circle cx="-871.6857" cy="-3251.248" r="8.00000702080164" fill="white"/>
          <circle cx="-871.6857" cy="-3251.248" r="8.00000702080164" stroke="black" stroke-linecap="round" stroke-linejoin="round" stroke-width="0"/>
        </g>
      </g>
      <g id="Graphic_12350">
        <path d="M -874.8798 -3250.864 L -872.2301 -3248.2143 C -872.0657 -3248.05 -872.0657 -3247.7832 -872.2301 -3247.619 C -872.3945 -3247.4544 -872.6611 -3247.4544 -872.8256 -3247.619 L -876.194 -3250.9872 C -876.3584 -3251.1517 -876.3584 -3251.4183 -876.194 -3251.5827 L -872.8256 -3254.951 C -872.6611 -3255.1155 -872.3945 -3255.1155 -872.2301 -3254.951 C -872.0657 -3254.7867 -872.0657 -3254.52 -872.2301 -3254.3557 L -874.8798 -3251.706 L -867.4752 -3251.706 C -867.2427 -3251.706 -867.0542 -3251.5175 -867.0542 -3251.285 C -867.0542 -3251.0524 -867.2427 -3250.864 -867.4752 -3250.864 L -874.8798 -3250.864 Z M -871.6857 -3243.285 C -876.104 -3243.285 -879.6857 -3246.8667 -879.6857 -3251.285 C -879.6857 -3255.7032 -876.104 -3259.285 -871.6857 -3259.285 C -867.2675 -3259.285 -863.6857 -3255.7032 -863.6857 -3251.285 C -863.6857 -3246.8667 -867.2675 -3243.285 -871.6857 -3243.285 Z M -871.6857 -3244.127 C -867.7325 -3244.127 -864.5278 -3247.3318 -864.5278 -3251.285 C -864.5278 -3255.238 -867.7325 -3258.443 -871.6857 -3258.443 C -875.6389 -3258.443 -878.8436 -3255.238 -878.8436 -3251.285 C -878.8436 -3247.3318 -875.6389 -3244.127 -871.6857 -3244.127 Z" fill="#5d76a1"/>
      </g>
    </g>
  </g>
</svg>
